X:1
T:Title
%%score { ( 1 3 ) | ( 2 4 ) }
L:1/8
M:4/4
K:G
V:1 treble nm="Grand Piano"
V:3 treble 
V:2 bass 
V:4 bass 
V:1
 z4 z2[Q:1/4=100] [B,D]>[A,D] | [B,EG]2 [CEG]2 [DG]2 [B,EG]>[CFA] | %2
 [DGB]2 [^DAB]2 [EGB]2 [B,G]>[B,GB] | [Ad]2 [Fd]>[Fd] [DGB]2 [^CG]2 | [CFA]6[K:bass] [F,D]>[F,CD] | %5
 [G,B,G]2 [G,CG]2 [G,DG]2 [G,EG]>[EA] | [DB]2 [FB]2 [EB]2 [GB]>[Ec] | %7
 [Dd]2 [Gd][Ge] [=FB]2 [^Fc][CFA] |[M:3/4] [B,G]6 |[M:1/4] B>c |[M:4/4] d6 z2 |[M:3/4] G6 | %12
[M:1/4] F>G |[M:35/32] A3/2-A/4- A4- A/4 z2 z3/4 | %14
[M:4/4] (9:8:8B2- [DB-]2 [EB-]/ [GB]/-[GB]3/2B/-B3/2B/ |[M:3/4] (3.[EA]3 .[Ec]3 .[Ec]3 | %16
[M:1/4] (3:2:2[^DA]2 [DA] |[M:4/4] (3:2:2[DG]2 z (3:2:2[DB]2 z (3:2:2[DB]2 z (3:2:2G2 B | %18
 (7:8:6d3/2-[Bd-]3/2[Gd]/ [DFB-]3/2[FB][CFA] |[M:3/4] [B,G]6 |] %20
V:2
 z4 z2 G,>F, | E,2 C,2 B,,2 E,>D, | G,2 F,2 E,2 E,>E, | [F,C]2 [D,B,]>[D,A,] E,2 E,2 | D,6 D,>D, | %5
 G,,2 A,,2 B,,2 C,>[^C,G,] | [D,G,]2 [^D,A,]2 [E,G,]2 [=D,G,]>[C,G,] | %7
 [B,,G,]2 [B,,B,][C,A,] [D,^G,]2 [D,A,]D, |[M:3/4] G,,6 |[M:1/4] z2 | %10
[M:4/4] z2 [G,B,]>[G,C] [G,D]2 D>C |[M:3/4] B,2 C,>E, G,,2 |[M:1/4] z2 | %13
[M:35/32] z2 [D,F,]>[D,G,] [D,A,]2 z2 z3/4 | %14
[M:4/4] z2[K:treble] (3:2:2G,2 [G,B,] z2 (3:2:2[G,D=F]2 [G,DF] | %15
[M:3/4][K:bass] (3[C,C]3 [C,A,]3 [C,A,]3 |[M:1/4] (3:2:2[C,C]2 [C,C] | %17
[M:4/4] (3:2:2[G,B,]3 G,3 z4 | (7:8:6D,3/2-[D,-G,]3/2[D,B,]/ D,3/2-[D,C]D, |[M:3/4] G,6 |] %20
V:3
 x8 | x8 | x8 | x8 | x6[K:bass] x2 | x8 | x8 | x8 |[M:3/4] x6 |[M:1/4] x2 |[M:4/4] z2 G>A B2 B>A | %11
[M:3/4] z2 [CE]>[CE] [B,D]2 |[M:1/4] x2 |[M:35/32] z2 D>E F2 d-(3:2:4d3/2-d/4A3/4-A/8 |[M:4/4] x8 | %15
[M:3/4] x6 |[M:1/4] x2 |[M:4/4] x8 | x511/64 |[M:3/4] x6 |] %20
V:4
 x8 | x8 | x8 | x8 | x8 | x8 | x8 | x8 |[M:3/4] x6 |[M:1/4] x2 |[M:4/4] x8 |[M:3/4] x6 | %12
[M:1/4] x2 |[M:35/32] x35/4 |[M:4/4] z4[K:treble] [G,D]2- [G,D]/4 z/4 z/ z |[M:3/4][K:bass] x6 | %16
[M:1/4] x2 |[M:4/4] z4 (5:4:5G,2- G,/ B,,/-B,,3/2G,,/ | x511/64 |[M:3/4] x6 |] %20

